X:1
T: The Buck of the Carrach
C:William Marshall
R:Reel
Q: 232
K:D
M:4/4
L:1/8
|:A|FD AF BG AF|DA df e2 EA|FD AF BG AF|Ad ce d2 DA|
FD AF BG AF|DA df e2 EA|FD AF BG AF|Ad ce d2 Dg|
fg1/2a1/2 ff bg ag|fg1/2a1/2 fd b2 eg|fg1/2a1/2 fd bg ag|fd ec d2 Dg|
fg1/2a1/2 ff bg ag|fg1/2a1/2 fd b2 eg|fd ge af bg|fd ec d2 D:|
